assets/static/images/send-love.svg

<svg width="20" height="15" viewBox="0 0 20 15" fill="none" xmlns="http://www.w3.org/2000/svg">
<path d="M17.3643 7.47059C16.8364 7.58824 16.7044 7.70589 16.4405 7.82354C16.2722 7.89858 15.9184 8.04672 15.5225 8.28201C15.2567 8.43999 14.8627 8.63493 14.461 8.88234C14.1783 9.08897 13.6259 9.295 13.4052 9.54019L14.5072 9.57737L14.8569 9.59539L15.2253 9.64577L15.6487 9.75938C16.1441 9.88788 16.1633 9.93042 16.3526 10.2049L16.4044 10.3694L17.2594 9.68004C18.1407 8.97593 18.9396 8.28846 18.9402 8.23355C19.0161 8.09026 19.143 7.47532 18.4201 7.35294C17.8233 7.35291 18.1561 7.35297 17.3643 7.47059ZM7.63807 7.84505C7.59098 7.85268 7.29043 7.91295 6.97019 7.97897C6.40978 8.09451 6.35067 8.1 5.39467 8.12553C4.26615 8.15565 4.05695 8.18831 3.47665 8.42495C2.7266 8.73079 2.09026 9.14736 1.4045 9.78146C1.18786 9.98179 1.00585 10.1563 1.00007 10.1692C0.990099 10.1915 2.10677 11.8456 2.72951 12.7311L3.01673 13.1395L3.22203 13.0098C3.47058 12.8529 3.85141 12.6945 4.16751 12.6166C4.34054 12.574 4.53957 12.5594 4.93229 12.5605C5.58603 12.5622 6.03179 12.6328 7.15856 12.9132C9.26103 13.4362 9.57181 13.5097 10.0356 13.5929C10.9342 13.7541 11.7609 13.7418 12.0732 13.5624C12.3421 13.4081 12.752 13.0643 13.3852 12.4622C13.7384 12.1264 14.1689 11.7364 14.342 11.5958L14.6565 11.34L14.461 11.3213C14.3535 11.311 13.9727 11.2648 13.6148 11.2185C12.5838 11.0854 12.3805 11.0684 11.8166 11.0683C10.9857 11.0682 10.4138 11.178 9.71094 11.4725C9.43985 11.5861 9.37179 11.6036 9.3471 11.5659C9.30041 11.4946 9.41365 11.4227 9.81177 11.2706C10.853 10.8729 11.7601 10.8115 13.3236 11.0331C14.6558 11.222 15.216 11.211 15.8075 10.9846C16.342 10.78 16.5034 10.5569 16.3599 10.2213C16.2575 9.98186 15.9997 9.84283 15.347 9.67512C15.0522 9.59933 14.9205 9.58795 14.0429 9.56232C13.506 9.54662 13.0051 9.52481 12.9298 9.51383C12.8544 9.50285 12.577 9.47983 12.3133 9.46263C11.4863 9.40879 11.0634 9.24734 10.1773 8.64724C9.24654 8.01685 8.74141 7.81842 8.08805 7.82658C7.88765 7.82909 7.68516 7.83739 7.63807 7.84505Z" fill="#C300BE" stroke="#C300BE" stroke-width="0.75"/>
<path d="M9.48264 1.41297C10.861 0.685517 12.0801 2.82093 12.0801 2.82093C12.0801 2.82093 13.4428 0.203755 14.9872 1.40045C16.7522 2.76815 13.4616 5.75321 12.3916 6.6515C12.2081 6.80556 11.9427 6.79834 11.7681 6.63432C10.7361 5.6654 7.53564 2.44051 9.48264 1.41297Z" stroke="#C300BE" fill="#C300BE" stroke-width="0.75" stroke-linejoin="round"/>
</svg>

<svg width="20" height="15" fill="none" xmlns="http://www.w3.org/2000/svg"><path d="M17.364 7.47c-.528.118-.66.236-.924.354-.168.075-.522.223-.918.458-.265.158-.66.353-1.061.6-.283.207-.835.413-1.056.658l1.102.037.35.018.368.05.424.114c.495.129.514.171.704.446l.051.164.855-.689c.882-.704 1.68-1.392 1.681-1.446.076-.144.203-.759-.52-.881-.597 0-.264 0-1.056.118zm-9.726.375c-.047.008-.348.068-.668.134-.56.116-.62.121-1.575.147-1.129.03-1.338.062-1.918.299-.75.306-1.387.722-2.072 1.356-.217.2-.4.375-.405.388-.01.022 1.107 1.677 1.73 2.562l.287.409.205-.13a3.53 3.53 0 01.946-.393c.173-.043.372-.058.764-.057.654.002 1.1.073 2.227.353 2.102.523 2.413.597 2.877.68.898.161 1.725.149 2.037-.03.27-.155.679-.499 1.312-1.1.353-.337.784-.727.957-.867l.314-.256-.195-.019c-.107-.01-.488-.056-.846-.102-1.031-.134-1.235-.15-1.798-.15-.831 0-1.403.109-2.106.403-.271.114-.34.132-.364.094-.047-.071.067-.143.465-.295 1.041-.398 1.948-.46 3.512-.238 1.332.189 1.892.178 2.483-.048.535-.205.696-.428.553-.764-.102-.24-.36-.378-1.013-.546-.295-.076-.426-.087-1.304-.113a24.322 24.322 0 01-1.113-.048 12.886 12.886 0 00-.617-.051c-.827-.054-1.25-.216-2.136-.816-.93-.63-1.436-.829-2.089-.82-.2.002-.403.01-.45.018z" fill="#C300BE" stroke="#C300BE" stroke-width=".75"/><path d="M9.483 1.413C10.86.686 12.08 2.821 12.08 2.821S13.443.204 14.987 1.4c1.765 1.367-1.525 4.352-2.595 5.25a.467.467 0 01-.624-.017c-1.032-.969-4.232-4.193-2.285-5.221z" stroke="#C300BE" fill="#C300BE" stroke-width=".75" stroke-linejoin="round"/></svg>
